public/icons/react-icon.svg

<svg width="129" height="128" viewBox="0 0 129 128" fill="none" xmlns="http://www.w3.org/2000/svg">
<g clip-path="url(#clip0_45_53)">
<path d="M98.2666 0H30.2666C13.6981 0 0.266602 13.4315 0.266602 30V98C0.266602 114.569 13.6981 128 30.2666 128H98.2666C114.835 128 128.267 114.569 128.267 98V30C128.267 13.4315 114.835 0 98.2666 0Z" fill="#F4F2ED"/>
<path d="M64.267 73.4755C69.419 73.4755 73.595 69.299 73.595 64.1475C73.595 58.996 69.419 54.8195 64.267 54.8195C59.115 54.8195 54.939 58.996 54.939 64.1475C54.939 69.299 59.1155 73.4755 64.267 73.4755Z" fill="#00D8FF"/>
<path d="M64.2676 45.1815C76.7916 45.1815 88.4261 46.9785 97.1986 49.999C107.768 53.6375 114.267 59.153 114.267 64.1475C114.267 69.352 107.38 75.2115 96.0291 78.972C87.4481 81.815 76.1561 83.299 64.2676 83.299C52.0786 83.299 40.5361 81.906 31.8581 78.9405C20.8791 75.188 14.2666 69.253 14.2666 64.1475C14.2666 59.1935 20.4716 53.7205 30.8926 50.0875C39.6976 47.0175 51.6191 45.1815 64.2656 45.1815H64.2676Z" stroke="#00D8FF" stroke-width="8.911"/>
<path d="M47.7571 54.719C54.0141 43.87 61.3826 34.689 68.3816 28.599C76.8136 21.2605 84.8386 18.3865 89.1646 20.881C93.6731 23.481 95.3086 32.375 92.8961 44.086C91.0736 52.9395 86.7166 63.4625 80.7771 73.7615C74.6876 84.3205 67.7151 93.6235 60.8116 99.6575C52.0761 107.293 43.6306 110.057 39.2081 107.506C34.9166 105.033 33.2756 96.923 35.3346 86.0805C37.0741 76.919 41.4396 65.6745 47.7551 54.719H47.7571Z" stroke="#00D8FF" stroke-width="8.911"/>
<path d="M47.7725 73.789C41.498 62.952 37.226 51.981 35.443 42.876C33.2965 31.9055 34.814 23.518 39.1365 21.016C43.641 18.408 52.1625 21.433 61.1035 29.372C67.8635 35.374 74.805 44.4025 80.7615 54.6915C86.8685 65.2405 91.4455 75.928 93.226 84.922C95.479 96.304 93.6555 105.001 89.237 107.558C84.95 110.04 77.1045 107.413 68.739 100.214C61.671 94.1315 54.109 84.734 47.7725 73.789Z" stroke="#00D8FF" stroke-width="8.911"/>
</g>
<defs>
<clipPath id="clip0_45_53">
<rect width="128" height="128" fill="white" transform="translate(0.266602)"/>
</clipPath>
</defs>
</svg>

<svg xmlns="http://www.w3.org/2000/svg" width="129" height="128" fill="none"><g clip-path="url(#a)"><path fill="#F4F2ED" d="M98.267 0h-68c-16.569 0-30 13.431-30 30v68c0 16.569 13.431 30 30 30h68c16.568 0 30-13.431 30-30V30c0-16.569-13.432-30-30-30Z"/><path fill="#00D8FF" d="M64.267 73.475a9.328 9.328 0 0 0 9.328-9.328 9.328 9.328 0 1 0-9.328 9.328Z"/><path stroke="#00D8FF" stroke-width="8.911" d="M64.268 45.181c12.524 0 24.158 1.797 32.93 4.818 10.57 3.639 17.069 9.154 17.069 14.148 0 5.205-6.887 11.064-18.238 14.825-8.58 2.843-19.873 4.327-31.761 4.327-12.19 0-23.732-1.393-32.41-4.359-10.979-3.752-17.591-9.687-17.591-14.793 0-4.954 6.205-10.427 16.626-14.06 8.805-3.07 20.726-4.906 33.373-4.906h.002Z"/><path stroke="#00D8FF" stroke-width="8.911" d="M47.757 54.719c6.257-10.849 13.626-20.03 20.625-26.12 8.432-7.338 16.457-10.212 20.783-7.718 4.508 2.6 6.144 11.494 3.731 23.205-1.822 8.854-6.18 19.377-12.119 29.675-6.09 10.56-13.062 19.863-19.965 25.897-8.736 7.635-17.181 10.399-21.604 7.848-4.291-2.473-5.932-10.583-3.873-21.425 1.74-9.162 6.105-20.407 12.42-31.362h.002Z"/><path stroke="#00D8FF" stroke-width="8.911" d="M47.773 73.789c-6.275-10.837-10.547-21.808-12.33-30.913-2.146-10.97-.629-19.358 3.694-21.86 4.504-2.608 13.026.417 21.966 8.356 6.76 6.002 13.702 15.03 19.658 25.32 6.108 10.548 10.684 21.236 12.465 30.23 2.253 11.382.43 20.079-3.989 22.636-4.287 2.482-12.132-.145-20.498-7.344-7.068-6.082-14.63-15.48-20.967-26.425Z"/></g><defs><clipPath id="a"><path fill="#fff" d="M.267 0h128v128h-128z"/></clipPath></defs></svg>
